svg/700/outlined/water_do-fill.svg

<svg xmlns="http://www.w3.org/2000/svg" width="48" height="48" viewBox="0 -960 960 960"><path d="M313.991-370Q325-370 333-377.789q8-7.79 8-19.5 0-11.711-7.818-19.211-7.818-7.5-19.375-7.5Q303-424 295-416.586q-8 7.415-8 19.375Q287-386 294.991-378q7.991 8 19 8Zm55.298-111q11.711 0 19.211-7.789 7.5-7.79 7.5-19.5 0-11.711-7.414-19.211-7.415-7.5-19.375-7.5Q358-535 350-527.586q-8 7.415-8 19.375Q342-497 349.789-489q7.79 8 19.5 8Zm0 222q11.711 0 19.211-7.789 7.5-7.79 7.5-19.5 0-11.711-7.414-19.211-7.415-7.5-19.375-7.5Q358-313 350-305.586q-8 7.415-8 19.375Q342-275 349.789-267q7.79 8 19.5 8Zm55.702-111Q436-370 444-377.789q8-7.79 8-19.5 0-11.711-7.818-19.211-7.818-7.5-19.375-7.5Q414-424 406-416.586q-8 7.415-8 19.375Q398-386 405.991-378q7.991 8 19 8Zm0-222Q436-592 444-599.789q8-7.79 8-19.5 0-11.711-7.818-19.211-7.818-7.5-19.375-7.5Q414-646 406-638.586q-8 7.415-8 19.375Q398-608 405.991-600q7.991 8 19 8Zm55.298 111q11.711 0 19.211-7.789 7.5-7.79 7.5-19.5 0-11.711-7.414-19.211-7.415-7.5-19.375-7.5Q469-535 461-527.586q-8 7.415-8 19.375Q453-497 460.789-489q7.79 8 19.5 8Zm0 222q11.711 0 19.211-7.789 7.5-7.79 7.5-19.5 0-11.711-7.414-19.211-7.415-7.5-19.375-7.5Q469-313 461-305.586q-8 7.415-8 19.375Q453-275 460.789-267q7.79 8 19.5 8Zm55.702-111Q547-370 555-377.789q8-7.79 8-19.5 0-11.711-7.818-19.211-7.818-7.5-19.375-7.5Q525-424 517-416.586q-8 7.415-8 19.375Q509-386 516.991-378q7.991 8 19 8Zm0-222Q547-592 555-599.789q8-7.79 8-19.5 0-11.711-7.818-19.211-7.818-7.5-19.375-7.5Q525-646 517-638.586q-8 7.415-8 19.375Q509-608 516.991-600q7.991 8 19 8Zm55.298 111q11.711 0 19.211-7.789 7.5-7.79 7.5-19.5 0-11.711-7.414-19.211-7.415-7.5-19.375-7.5Q580-535 572-527.586q-8 7.415-8 19.375Q564-497 571.789-489q7.79 8 19.5 8Zm0 222q11.711 0 19.211-7.789 7.5-7.79 7.5-19.5 0-11.711-7.414-19.211-7.415-7.5-19.375-7.5Q580-313 572-305.586q-8 7.415-8 19.375Q564-275 571.789-267q7.79 8 19.5 8Zm55.702-111Q658-370 666-377.789q8-7.79 8-19.5 0-11.711-7.818-19.211-7.818-7.5-19.375-7.5Q636-424 628-416.586q-8 7.415-8 19.375Q620-386 627.991-378q7.991 8 19 8ZM479.897-55q-147.659 0-246.278-101.165Q135-257.329 135-408q0-105.91 85.5-231.455Q306-765 480-913q174 148 260 273.545Q826-513.91 826-408q0 150.671-99.222 251.835Q627.556-55 479.897-55Z"/></svg>

<svg xmlns="http://www.w3.org/2000/svg" width="48" height="48" viewBox="0 -960 960 960"><path d="M313.99-370q11.01 0 19.01-7.79 8-7.79 8-19.5t-7.82-19.21q-7.82-7.5-19.37-7.5-10.81 0-18.81 7.41-8 7.42-8 19.38 0 11.21 7.99 19.21t19 8Zm55.3-111q11.71 0 19.21-7.79t7.5-19.5q0-11.71-7.41-19.21-7.42-7.5-19.38-7.5-11.21 0-19.21 7.41-8 7.42-8 19.38 0 11.21 7.79 19.21t19.5 8Zm0 222q11.71 0 19.21-7.79t7.5-19.5q0-11.71-7.41-19.21-7.42-7.5-19.38-7.5-11.21 0-19.21 7.41-8 7.42-8 19.38 0 11.21 7.79 19.21t19.5 8Zm55.7-111q11.01 0 19.01-7.79 8-7.79 8-19.5t-7.82-19.21q-7.82-7.5-19.37-7.5-10.81 0-18.81 7.41-8 7.42-8 19.38 0 11.21 7.99 19.21t19 8Zm0-222q11.01 0 19.01-7.79 8-7.79 8-19.5t-7.82-19.21q-7.82-7.5-19.37-7.5-10.81 0-18.81 7.41-8 7.42-8 19.38 0 11.21 7.99 19.21t19 8Zm55.3 111q11.71 0 19.21-7.79t7.5-19.5q0-11.71-7.41-19.21-7.42-7.5-19.38-7.5-11.21 0-19.21 7.41-8 7.42-8 19.38 0 11.21 7.79 19.21t19.5 8Zm0 222q11.71 0 19.21-7.79t7.5-19.5q0-11.71-7.41-19.21-7.42-7.5-19.38-7.5-11.21 0-19.21 7.41-8 7.42-8 19.38 0 11.21 7.79 19.21t19.5 8Zm55.7-111q11.01 0 19.01-7.79 8-7.79 8-19.5t-7.82-19.21q-7.82-7.5-19.37-7.5-10.81 0-18.81 7.41-8 7.42-8 19.38 0 11.21 7.99 19.21t19 8Zm0-222q11.01 0 19.01-7.79 8-7.79 8-19.5t-7.82-19.21q-7.82-7.5-19.37-7.5-10.81 0-18.81 7.41-8 7.42-8 19.38 0 11.21 7.99 19.21t19 8Zm55.3 111q11.71 0 19.21-7.79t7.5-19.5q0-11.71-7.41-19.21-7.42-7.5-19.38-7.5-11.21 0-19.21 7.41-8 7.42-8 19.38 0 11.21 7.79 19.21t19.5 8Zm0 222q11.71 0 19.21-7.79t7.5-19.5q0-11.71-7.41-19.21-7.42-7.5-19.38-7.5-11.21 0-19.21 7.41-8 7.42-8 19.38 0 11.21 7.79 19.21t19.5 8Zm55.7-111q11.01 0 19.01-7.79 8-7.79 8-19.5t-7.82-19.21q-7.82-7.5-19.37-7.5-10.81 0-18.81 7.41-8 7.42-8 19.38 0 11.21 7.99 19.21t19 8ZM479.9-55q-147.66 0-246.28-101.16Q135-257.33 135-408q0-105.91 85.5-231.46Q306-765 480-913q174 148 260 273.54Q826-513.91 826-408q0 150.67-99.22 251.84Q627.56-55 479.9-55Z"/></svg>
